icons/file-symlink-file-16.svg

<svg xmlns="http://www.w3.org/2000/svg" width="16" height="16" viewBox="0 0 16 16"><path fill-rule="evenodd" d="M2 1.75C2 .784 2.784 0 3.75 0h5.586c.464 0 .909.184 1.237.513l2.914 2.914c.329.328.513.773.513 1.237v8.586A1.75 1.75 0 0112.25 15h-7a.75.75 0 010-1.5h7a.25.25 0 00.25-.25V6H9.75A1.75 1.75 0 018 4.25V1.5H3.75a.25.25 0 00-.25.25V4.5a.75.75 0 01-1.5 0V1.75zm7.5-.188V4.25c0 .138.112.25.25.25h2.688a.252.252 0 00-.011-.013L9.513 1.573a.248.248 0 00-.013-.011zm-8 10.675a2.25 2.25 0 012.262-2.25L4 9.99v1.938c0 .218.26.331.42.183l2.883-2.677a.25.25 0 000-.366L4.42 6.39a.25.25 0 00-.42.183V8.49l-.23-.001A3.75 3.75 0 000 12.238v1.012a.75.75 0 001.5 0v-1.013z"/></svg>

<svg xmlns="http://www.w3.org/2000/svg" width="16" height="16" viewBox="0 0 16 16">
  <defs/>
  <path d="M2,1.75 C2,0.784 2.784,0 3.75,0 L9.336,0 C9.8,0 10.245,0.184 10.573,0.513 L13.487,3.427 C13.816,3.755 14,4.2 14,4.664 L14,13.25 C14,14.216 13.216,15 12.25,15 L5.25,15 C4.836,15 4.5,14.664 4.5,14.25 C4.5,13.836 4.836,13.5 5.25,13.5 L12.25,13.5 C12.388,13.5 12.5,13.388 12.5,13.25 L12.5,6 L9.75,6 C8.784,6 8,5.216 8,4.25 L8,1.5 L3.75,1.5 C3.612,1.5 3.5,1.612 3.5,1.75 L3.5,4.5 C3.5,4.914 3.164,5.25 2.75,5.25 C2.336,5.25 2,4.914 2,4.5 Z M1.5,12.237 L1.5,13.25 C1.5,13.664 1.164,14 0.75,14 C0.336,14 0,13.664 0,13.25 L0,12.238 C0,11.24 0.398,10.284 1.106,9.58 C1.813,8.876 2.772,8.484 3.77,8.489 L4,8.49 L4,6.573 C4,6.474 4.059,6.384 4.15,6.344 C4.241,6.304 4.347,6.322 4.42,6.39 L7.303,9.068 C7.354,9.115 7.383,9.182 7.383,9.251 C7.383,9.32 7.354,9.387 7.303,9.434 L4.42,12.111 C4.26,12.259 4,12.146 4,11.928 L4,9.99 L3.762,9.987 C3.163,9.984 2.588,10.219 2.163,10.642 C1.739,11.064 1.5,11.638 1.5,12.237 Z M9.5,1.562 L9.5,4.25 C9.5,4.388 9.612,4.5 9.75,4.5 L12.438,4.5 C12.434,4.496 12.431,4.491 12.427,4.487 L9.513,1.573 C9.509,1.569 9.504,1.566 9.5,1.562 Z"/>
</svg>
